!!!OTL: 50. Skotshne
!!!Genre:	Skotshne
!!!Mode:	Minor
!!!Listening/dance:	listening
!!!:	*B-:
!!!One_Mode:	no
**kern
*I"P1
*clefG2
*k[b-e-]
*g:
*M2/4
*>A
=1
(16qqd/LL
16qqen/
16qqf#X/JJ
8gL)
16b-L
16gJJ
8gL
16ddL
16b-JJ
=2
8gL
16ggL
16ddJJ
(16b-LL
16dd)
16b-
16gJJ
=3
16ccLL
16g
16ee-'
16dd'JJ
(16ccLL
16ee-)
16gg'
16ee-'JJ
=4
(16ddLL
16cc)
16b-
16ccJJ
8dd
8r
=5
(16ddLL
16bb-)
16ff#X
16ggJJ
(16aaLL
16gg)
16dd
16ee-JJ
=6
(16ffnLL
16dd)
16b-
16ddJJ
16ffLL
16ee-
16dd
16ccJJ
=7
8b-L
16ffL
16eenJJ
16ffLL
16ee-X
16dd
16ccJJ
=8
(16b-LL
16cc)
(16a
16b-JJ)
8g
8r
*>bM
*B-:
!LO:TX:a:i:t=Bb-major
=9:|!|:
*>B
16b-LL
(16d
16f)
(16b-JJ
16ddLL)
(16f
16b-)
(16ddJJ
=10
16ffLL)
(16een
16gg)
(16ffJJ
16bb-LL)
16aa'
16gg'
16ff'JJ
=11
(16ee-XLL
16dd)
16cc
16ddJJ
16ee-LL
16dd
16ff
16ddJJ
=12
4.cc
8b-
=13
16aLL
(16f
16a)
(16ccJJ
16ee-LL)
(16a
16cc)
(16ee-JJ
=14
16aaLL)
16gg
16ff
16ee-JJ
16ddLL
16cc
16b-
16aJJ
=15
8fL
(16aaL
16ggJJ)
16ffLL
16ee-
16dd
16ccJJ
*>B1
=16
(16ccLL
16ddJJ
4b-)
8f
*>B2
=17:|!
(16ccLL
16ddJJ)
4b-
*>C
8a
*>eM
*g:
!LO:TX:a:i:t=G-minor
=18!|:
16ddLL
(16b-
16bn
16ccJJ
16ddLL)
(16g
16a-X
16anJJ
=19
16b-XLL)
(16d
16en
16f#XJJ
8gL)
16b-L
16aJJ
=20
(16gLL
16b-)
16dd
16ggJJ
(16bb-LL
16aa)
16gg
16ff#XJJ
=21
(16ggLL
16ff#X)
16gg
16ee-JJ
8dd
8r
=22
(16ddLL
16gg
16ff#X
16ffnJJ
16eenLL
16ee-X
16dd
16ccJJ)
=23
(16bnLL
16gg-X
16ff
16eenJJ
16ee-XLL
16dd
16cc
16bJJ)
=24
8b-XL
8qggn/
16ffL
16eenJJ
16ffLL
16ee-X
16dd
16ccJJ
=25
(16b-LL
16cc)
(16a
16b-JJ)
8g
8r
=:|!
*-
